svgs/thin/text-size.svg

<svg xmlns="http://www.w3.org/2000/svg" viewBox="0 0 640 512"><!--! Font Awesome Pro 6.6.0 by @fontawesome - https://fontawesome.com License - https://fontawesome.com/license (Commercial License) Copyright 2024 Fonticons, Inc. --><path d="M16 56c0-4.4 3.6-8 8-8l160 0 0 416-80 0c-4.4 0-8 3.6-8 8s3.6 8 8 8l88 0 88 0c4.4 0 8-3.6 8-8s-3.6-8-8-8l-80 0 0-416 160 0c4.4 0 8 3.6 8 8l0 48c0 4.4 3.6 8 8 8s8-3.6 8-8l0-48c0-13.3-10.7-24-24-24L192 32 24 32C10.7 32 0 42.7 0 56l0 48c0 4.4 3.6 8 8 8s8-3.6 8-8l0-48zM336 248c0-4.4 3.6-8 8-8l128 0 0 224-80 0c-4.4 0-8 3.6-8 8s3.6 8 8 8l88 0 88 0c4.4 0 8-3.6 8-8s-3.6-8-8-8l-80 0 0-224 128 0c4.4 0 8 3.6 8 8l0 48c0 4.4 3.6 8 8 8s8-3.6 8-8l0-48c0-13.3-10.7-24-24-24l-136 0-136 0c-13.3 0-24 10.7-24 24l0 48c0 4.4 3.6 8 8 8s8-3.6 8-8l0-48z"/></svg>

<svg xmlns="http://www.w3.org/2000/svg" viewBox="0 0 640 512"><!--! Font Awesome Pro 6.5.2 by @fontawesome - https://fontawesome.com License - https://fontawesome.com/license (Commercial License) Copyright 2024 Fonticons, Inc. --><path d="M16 56c0-4.4 3.6-8 8-8H184l0 416H104c-4.4 0-8 3.6-8 8s3.6 8 8 8h88 88c4.4 0 8-3.6 8-8s-3.6-8-8-8H200l0-416H360c4.4 0 8 3.6 8 8v48c0 4.4 3.6 8 8 8s8-3.6 8-8V56c0-13.3-10.7-24-24-24H192 24C10.7 32 0 42.7 0 56v48c0 4.4 3.6 8 8 8s8-3.6 8-8V56zM336 248c0-4.4 3.6-8 8-8H472l0 224H392c-4.4 0-8 3.6-8 8s3.6 8 8 8h88 88c4.4 0 8-3.6 8-8s-3.6-8-8-8H488l0-224H616c4.4 0 8 3.6 8 8v48c0 4.4 3.6 8 8 8s8-3.6 8-8V248c0-13.3-10.7-24-24-24H480 344c-13.3 0-24 10.7-24 24v48c0 4.4 3.6 8 8 8s8-3.6 8-8V248z"/></svg>
